!! 00000] TT[00
!!!OTL: Shouliede gege huilai
!!!ARE: Heilongjiang
!! Ethnic Group: Hezhe
!! Zhongguo Minge Jing Xuan, 275
!!!SCT: C1168
!!!YEM: Copyright 1995, estate of Helmut Schaffrath.
**kern
*ICvox
*Ivox
*M4/4
*k[f#c#g#d#]
*E:
{8b
8ee
16g#
16b
16f#
16g#
8e
8g#
4B
=1
8b
8ee
16g#
16b
16f#
16g#
2b}
=2
{8b
8ee
8g#
8b
8f#
8g#
24e
24f#
24g#
16c#
16B
=3
8G#
8B
8c#
8e
2B}
=4
{4G#
8.B
16c#
8e
4e
16c#
16B
=5
4G#
8B
8c#
2e}
=6
{8b
8ee
8g#
8f#
8e
8g#
16c#
16B
8G#
=7
4B
8c#
8e
2B}
=8
{8b
8ee
16g#
16b
16f#
16g#
8e
8g#
4B
=9
8b
8ee
16g#
16b
16f#
16g#
2b}
=10
{8b
8ee
8g#
8b
8f#
8g#
24e
24f#
24g#
16c#
16B
=11
8G#
8B
8c#
8e
2B}
=12
{4G#
8.B
16c#
8e
4e
16c#
16B
=13
4G#
8B
8c#
2e}
=14
{8b
8ee
8g#
8f#
8e
8g#
16c#
16B
8G#
=15
4B
8c#
8e
2B}
=16
{8b
8ee
16g#
16b
16f#
16g#
8e
8g#
4B
=17
8b
8ee
16g#
16b
16f#
16g#
2b}
=18
{8b
8ee
8g#
8b
8f#
8g#
24e
24f#
24g#
16c#
16B
=19
8G#
8B
8c#
8e
2B}
=20
{4G#
8.B
16c#
8e
4e
16c#
16B
=21
4c#
8.e
16g#
2f#}
=22
{8b
8ee
8g#
8f#
8e
8g#
16c#
16B
8G#
=23
8b
8ee
8g#
16f#
16g#
2b}
==
!!!AGN: Qingge
!! Taktsummen korrigiert. Im Original falsch!
!!!ONB: ESAC (Essen Associative Code) Database: CHINA_031
!!!AMT: simple quadruple
!!!AIN: vox
!!!EED: Helmut Schaffrath
!!!EEV: 1.0
*-
